icons/svg/craft/caterer.svg

<?xml version="1.0" encoding="UTF-8" standalone="no"?>
<!-- Created with Inkscape (http://www.inkscape.org/) -->

<svg
   xmlns:dc="http://purl.org/dc/elements/1.1/"
   xmlns:cc="http://creativecommons.org/ns#"
   xmlns:rdf="http://www.w3.org/1999/02/22-rdf-syntax-ns#"
   xmlns:svg="http://www.w3.org/2000/svg"
   xmlns="http://www.w3.org/2000/svg"
   xmlns:sodipodi="http://sodipodi.sourceforge.net/DTD/sodipodi-0.dtd"
   xmlns:inkscape="http://www.inkscape.org/namespaces/inkscape"
   version="1.0"
   width="580"
   height="580"
   id="svg2"
   sodipodi:version="0.32"
   inkscape:version="0.92.3 (2405546, 2018-03-11)"
   sodipodi:docname="caterer.svg"
   inkscape:output_extension="org.inkscape.output.svg.inkscape">
  <metadata
     id="metadata2975">
    <rdf:RDF>
      <cc:Work
         rdf:about="">
        <dc:format>image/svg+xml</dc:format>
        <dc:type
           rdf:resource="http://purl.org/dc/dcmitype/StillImage" />
        <cc:license
           rdf:resource="http://web.resource.org/cc/PublicDomain" />
        <dc:language>en</dc:language>
        <dc:title />
      </cc:Work>
    </rdf:RDF>
  </metadata>
  <sodipodi:namedview
     inkscape:window-height="1006"
     inkscape:window-width="1920"
     inkscape:pageshadow="2"
     inkscape:pageopacity="0.0"
     guidetolerance="10.0"
     gridtolerance="10.0"
     objecttolerance="10.0"
     borderopacity="1.0"
     bordercolor="#666666"
     pagecolor="#ffffff"
     id="base"
     inkscape:zoom="0.46083856"
     inkscape:cx="211.00977"
     inkscape:cy="115.75197"
     inkscape:window-x="1920"
     inkscape:window-y="0"
     inkscape:current-layer="svg2"
     showgrid="false"
     inkscape:window-maximized="1" />
  <defs
     id="defs4">
    <inkscape:perspective
       sodipodi:type="inkscape:persp3d"
       inkscape:vp_x="0 : 290 : 1"
       inkscape:vp_y="6.1230318e-14 : 1000 : 0"
       inkscape:vp_z="580 : 290 : 1"
       inkscape:persp3d-origin="290 : 193.33333 : 1"
       id="perspective2441" />
    <inkscape:perspective
       id="perspective3452"
       inkscape:persp3d-origin="30 : 20 : 1"
       inkscape:vp_z="60 : 30 : 1"
       inkscape:vp_y="0 : 1000 : 0"
       inkscape:vp_x="0 : 30 : 1"
       sodipodi:type="inkscape:persp3d" />
    <symbol
       viewBox="244.5 110 489 219.9"
       id="symbol-university">
      <path
         id="path4460"
         d="M79,43l57,119c0,0,21-96,104-96s124,106,124,106l43-133l82-17L0,17L79,43z" />
      <path
         id="path4462"
         d="M94,176l-21,39"
         stroke-width="20"
         stroke="#000000"
         fill="none" />
      <path
         id="path4464"
         d="M300,19c0,10.5-22.6,19-50.5,19S199,29.5,199,19s22.6-19,50.5-19S300,8.5,300,19z" />
      <path
         id="path4466"
         d="M112,216l-16-38L64,88c0,0-9-8-4-35s16-24,16-24"
         stroke-width="20"
         stroke="#000000"
         ill="none" />
    </symbol>
    <inkscape:perspective
       id="perspective4471"
       inkscape:persp3d-origin="372.04724 : 350.78739 : 1"
       inkscape:vp_z="744.09448 : 526.18109 : 1"
       inkscape:vp_y="0 : 1000 : 0"
       inkscape:vp_x="0 : 526.18109 : 1"
       sodipodi:type="inkscape:persp3d" />
    <inkscape:perspective
       id="perspective4668"
       inkscape:persp3d-origin="6 : 4 : 1"
       inkscape:vp_z="12 : 6 : 1"
       inkscape:vp_y="0 : 1000 : 0"
       inkscape:vp_x="0 : 6 : 1"
       sodipodi:type="inkscape:persp3d" />
    <inkscape:perspective
       id="perspective3826"
       inkscape:persp3d-origin="0.5 : 0.33333333 : 1"
       inkscape:vp_z="1 : 0.5 : 1"
       inkscape:vp_y="0 : 1000 : 0"
       inkscape:vp_x="0 : 0.5 : 1"
       sodipodi:type="inkscape:persp3d" />
    <inkscape:perspective
       id="perspective3855"
       inkscape:persp3d-origin="0.5 : 0.33333333 : 1"
       inkscape:vp_z="1 : 0.5 : 1"
       inkscape:vp_y="0 : 1000 : 0"
       inkscape:vp_x="0 : 0.5 : 1"
       sodipodi:type="inkscape:persp3d" />
    <inkscape:perspective
       id="perspective3909"
       inkscape:persp3d-origin="0.5 : 0.33333333 : 1"
       inkscape:vp_z="1 : 0.5 : 1"
       inkscape:vp_y="0 : 1000 : 0"
       inkscape:vp_x="0 : 0.5 : 1"
       sodipodi:type="inkscape:persp3d" />
    <inkscape:perspective
       id="perspective11014"
       inkscape:persp3d-origin="0.5 : 0.33333333 : 1"
       inkscape:vp_z="1 : 0.5 : 1"
       inkscape:vp_y="0 : 1000 : 0"
       inkscape:vp_x="0 : 0.5 : 1"
       sodipodi:type="inkscape:persp3d" />
    <inkscape:perspective
       id="perspective11066"
       inkscape:persp3d-origin="0.5 : 0.33333333 : 1"
       inkscape:vp_z="1 : 0.5 : 1"
       inkscape:vp_y="0 : 1000 : 0"
       inkscape:vp_x="0 : 0.5 : 1"
       sodipodi:type="inkscape:persp3d" />
    <inkscape:perspective
       id="perspective15015"
       inkscape:persp3d-origin="0.5 : 0.33333333 : 1"
       inkscape:vp_z="1 : 0.5 : 1"
       inkscape:vp_y="0 : 1000 : 0"
       inkscape:vp_x="0 : 0.5 : 1"
       sodipodi:type="inkscape:persp3d" />
    <inkscape:perspective
       id="perspective15058"
       inkscape:persp3d-origin="0.5 : 0.33333333 : 1"
       inkscape:vp_z="1 : 0.5 : 1"
       inkscape:vp_y="0 : 1000 : 0"
       inkscape:vp_x="0 : 0.5 : 1"
       sodipodi:type="inkscape:persp3d" />
  </defs>
  <g
     id="g1327">
    <path
       d="M 66.275,1.768 C 24.94,1.768 1.704,23.139 1.704,66.804 L 1.704,516.927 C 1.704,557.771 22.599,579.156 63.896,579.156 L 515.92,579.156 C 557.227,579.156 578.149,558.841 578.149,516.927 L 578.149,66.804 C 578.149,24.203 557.227,1.768 514.628,1.768 C 514.624,1.768 66.133,1.625 66.275,1.768 z "
       style="fill:#111;stroke:#eee;stroke-width:3.40799999"
       id="path1329" />
  </g>
  <g
     id="g3338"
     transform="matrix(1.3973279,-0.2437849,0.2437849,1.3973279,-185.07402,-56.183307)" />
  <path
     style="fill:#ffffff;fill-opacity:1;stroke-width:1"
     d="m 48.488499,333.45067 v -16.29244 h 19.861273 19.86126 l 1.23014,-11.97974 c 0.67658,-6.58886 3.37968,-20.00691 6.00689,-29.81789 19.730498,-73.68095 79.145868,-129.69985 153.952138,-145.15151 8.03689,-1.66006 14.85739,-3.26318 15.15668,-3.56247 0.2993,-0.2993 -1.62478,-11.19374 -4.27571,-24.20988 -2.87905,-14.136156 -4.09061,-24.116438 -3.00884,-24.785019 0.99611,-0.61561 8.98295,-3.59263 17.74857,-6.615587 l 15.93748,-5.49628 14.40808,5.143365 c 21.37516,7.630474 20.09118,5.192995 15.35159,29.14285 -2.27095,11.475461 -4.51522,22.222941 -4.98728,23.883301 -0.67386,2.37017 1.73961,3.49751 11.23209,5.24657 84.66415,15.59998 151.15184,85.46247 162.81171,171.07573 l 2.33251,17.12656 h 19.7022 19.70222 v 16.29244 16.29244 H 48.488499 Z"
     id="path843"
     inkscape:connector-curvature="0"
     sodipodi:nodetypes="cccccsscccscsscssccccccc" />
  <g
     id="Layer_4"
     transform="matrix(-1.1051646,0,0,1.1051646,657.58,297.92698)"
     style="fill:#ffffff;fill-opacity:1;stroke-width:0.84725666">
    <path
       style="fill:#ffffff;fill-opacity:1;stroke-width:0.8472566"
       inkscape:connector-curvature="0"
       d="m 238.73747,150.5227 92.42434,42.58667 c 0,0 10.87301,6.34289 28.99493,0 l 149.50675,-59.80325 c 0,0 20.31805,-9.54568 -6.86551,-22.23076 l -113.8468,29.87992 c -23.01991,0.45944 -56.22429,-5.9173 -55.91481,-21.92566 l 86.0169,-11.85844 c 0,0 23.55806,-11.015578 0.90534,-27.324753 -69.42125,1.814574 -131.84559,-7.682068 -181.67858,0.741924 l -95.58961,22.804519 v 86.44646 z"
       id="path24"
       sodipodi:nodetypes="ccccccccccccc" />
  </g>
</svg>

<svg width="580" height="580" viewBox="0 0 580 580" fill="none" xmlns="http://www.w3.org/2000/svg">
<g clip-path="url(#clip0)">
<path d="M66.2751 1.76799C24.9401 1.76799 1.7041 23.139 1.7041 66.804V516.927C1.7041 557.771 22.5991 579.156 63.8961 579.156H515.92C557.227 579.156 578.149 558.841 578.149 516.927V66.804C578.149 24.203 557.227 1.76799 514.628 1.76799C514.624 1.76799 66.1331 1.62499 66.2751 1.76799Z" fill="#111111" stroke="#EEEEEE" stroke-width="3.408"/>
<path d="M48.4883 333.451V317.158H68.3496H88.2108L89.441 305.178C90.1175 298.59 92.8206 285.172 95.4478 275.361C115.178 201.68 174.594 145.661 249.4 130.209C257.437 128.549 264.257 126.946 264.557 126.647C264.856 126.347 262.932 115.453 260.281 102.437C257.402 88.3006 256.19 78.3203 257.272 77.6517C258.268 77.0361 266.255 74.0591 275.021 71.0361L290.958 65.5399L305.366 70.6832C326.741 78.3137 325.457 75.8762 320.718 99.8261C318.447 111.302 316.203 122.049 315.731 123.709C315.057 126.08 317.47 127.207 326.963 128.956C411.627 144.556 478.114 214.418 489.774 300.032L492.107 317.158H511.809H531.511V333.451V349.743H48.4883V333.451Z" fill="white"/>
<path d="M393.736 464.279L291.592 511.345C291.592 511.345 279.575 518.355 259.548 511.345L94.3181 445.252C94.3181 445.252 71.8634 434.703 101.906 420.684L227.725 453.706C253.166 454.214 289.862 447.166 289.52 429.474L194.457 416.369C194.457 416.369 168.422 404.195 193.457 386.17C270.179 388.176 339.168 377.68 394.242 386.99L499.884 412.193V507.731L393.736 464.279Z" fill="white"/>
</g>
<defs>
<clipPath id="clip0">
<path d="M0 0H580V580H0V0Z" fill="white"/>
</clipPath>
</defs>
</svg>
